material/.icons/material/chevron-triple-left.svg

<svg xmlns="http://www.w3.org/2000/svg" viewBox="0 0 24 24"><path d="M9.42 7.41L4.83 12l4.59 4.59L8 18l-6-6 6-6 1.42 1.41m6 0L10.83 12l4.59 4.59L14 18l-6-6 6-6 1.42 1.41m6 0L16.83 12l4.59 4.59L20 18l-6-6 6-6 1.42 1.41z"/></svg>

<?xml version="1.0" encoding="UTF-8"?><!DOCTYPE svg PUBLIC "-//W3C//DTD SVG 1.1//EN" "http://www.w3.org/Graphics/SVG/1.1/DTD/svg11.dtd"><svg xmlns="http://www.w3.org/2000/svg" xmlns:xlink="http://www.w3.org/1999/xlink" version="1.1" id="mdi-chevron-triple-left" width="24" height="24" viewBox="0 0 24 24"><path d="M9.42,7.41L4.83,12L9.42,16.59L8,18L2,12L8,6L9.42,7.41M15.42,7.41L10.83,12L15.42,16.59L14,18L8,12L14,6L15.42,7.41M21.42,7.41L16.83,12L21.42,16.59L20,18L14,12L20,6L21.42,7.41Z" /></svg>
